X:1
T:Title
%%score ( 1 2 ) ( 3 4 )
L:1/8
Q:1/4=100
M:4/4
K:C
V:1 treble nm="Midi_20"
V:2 treble 
V:3 bass nm="Midi_20"
V:4 bass 
V:1
"^Culford (77. 77. D.)""^E. J. Hopkins\n(1818-1901)""^Frances Ridley Havergal\n(1836-79)""^Take my life, and let it be" E2 E2 G2 G2 | %1
 c2 c2 G4 | A2 A2 G2 A2 | F3 E E4 || E2 E2 G2 G2 | c2 c2 A4 | ^F2 A2 d2 B2 | A3 G G4 || %8
[M:4/4] G2 A2 B2 d2 | c2 G2 A4 | A2 B2 c2 e2 | d2 A2 B4 || c3 c B2 E2 | A2 A2 G4 | A2 B2 c2 e2 | %15
 d3 c c4 |] %16
V:2
 C2 C2 B,2 B,2 | C2 C2 C4 | C2 D2 E2 C2 | C2 B,2 C4 || C2 C2 B,2 B,2 | C2 C2 E4 | D2 D2 D2 D2 | %7
 D2 C2 B,4 ||[M:4/4] D2 D2 G2 G2 | G2 E2 F4 | E2 E2 E2 A2 | A2 F2 G4 || G2 G2 E2 E2 | E2 E2 E4 | %14
 F2 F2 E2 E2 | A2 F2 E4 |] %16
V:3
 G,2 G,2 F,2 F,2 | E,2 E,2 C4 | A,2 B,2 C2 A,2 | A,2 G,2 G,4 || G,2 G,2 F,2 F,2 | E,2 E,2 A,4 | %6
 A,2 ^F,2 G,2 G,2 | G,2 ^F,2 G,4 || %8
[M:4/4]"^1. Take my life, and let it be\nConsecrated, Lord, to Thee.\nTake my moments and my days;\nLet them flow in ceaseless praise.\n\n2. Take my hands, and let them move\nAt the impulse of Thy love.\nTake my feet, and let them be\nSwift and beautiful for Thee.\n\n3. Take my voice, and let me sing\nAlways, only, for my King.\nTake my lips, and let them be\nFilled with messages from Thee." B,2 C2 D2 B,2 | %9
 C2 C2 C4 | C2 D2 C2 ^C2 | D2 D2 D4 || %12
"^4. Take my silver and my gold;\nNot a mite will I withhold.\nTake my intellect, and use\nEvery power as Thou shalt choose.\n\n5. Take my will, and make it Thine;\nIt shall be no longer mine.\nTake my heart - it is Thine own;\nIt shall be Thy royal throne.\n\n6. Take my love; my Lord, I pour\nAt Thy feet its treasure-store.\nTake myself, and I will be\nEver, only, all for Thee." C2 G,2 ^G,2 G,2 | %13
 A,2 A,2 C4 | C2 D2 C2 C2 | C2 B,2 C4 |] %16
V:4
 C,2 C,2 G,,2 G,,2 | A,,2 A,,2 E,4 | F,2 F,2 E,2 A,,2 | D,2 G,,2 C,4 || C,2 C,2 G,,2 G,,2 | %5
 A,,2 A,,2 C,4 | D,2 C,2 B,,2 G,,2 | D,2 D,2 G,,4 ||[M:4/4] G,2 G,2 G,2 F,2 | E,2 C,2 F,4 | %10
 A,2 A,2 A,2 G,2 | F,2 D,2 G,4 || E,2 E,2 D,2 D,2 | C,2 C,2 _B,,4 | A,,2 A,,2 A,2 G,2 | %15
 F,2 G,2 C,4 |] %16

